brandFactory_export/2.Regular/Tirita_2Regular.svg

<?xml version="1.0" encoding="UTF-8"?>
<svg width="24px" height="24px" viewBox="0 0 24 24" version="1.1" xmlns="http://www.w3.org/2000/svg" xmlns:xlink="http://www.w3.org/1999/xlink">
    <title>2.Regular/Tirita_2Regular</title>
    <g id="Symbols" stroke="none" stroke-width="1" fill="none" fill-rule="evenodd">
        <g id="2.Regular/Tirita_2Regular" fill="#5CB615" fill-rule="nonzero">
            <path d="M20.2420168,20.2453782 C22.712605,17.7747899 22.7932773,15.3815126 20.4907563,12.9210084 C20.4336134,12.8537815 20.3932773,12.8201681 20.3563025,12.7831933 L20.2521008,12.6823529 L19.307563,11.7378151 L11.7378151,19.307563 L12.1109244,19.6806723 C12.2453782,19.8319328 12.3563025,19.9394958 12.4705882,20.0470588 L12.6789916,20.2487395 C13.9193277,21.4890756 15.1663866,22.1277311 16.3932773,22.1478992 C17.6268908,22.1613445 18.9579832,21.5327731 20.2420168,20.2453782 L20.2420168,20.2453782 Z M10.6991597,18.2722689 L18.2655462,10.6991597 L12.7327731,5.16638655 L5.16638655,12.7394958 L10.6991597,18.2722689 L10.6991597,18.2722689 Z M3.90252101,11.4722689 L4.12773109,11.697479 L11.697479,4.12436975 L10.8168067,3.24369748 C9.58655462,2.05378151 8.37310924,1.45546218 7.15966387,1.45546218 C5.90252101,1.45546218 4.6487395,2.09411765 3.37478992,3.36806723 C0.826890756,5.91596639 0.826890756,8.38991597 3.37478992,10.9378151 L3.57647059,11.1462185 C3.68403361,11.2638655 3.78823529,11.3747899 3.90252101,11.4722689 L3.90252101,11.4722689 Z M21.589916,11.9428571 C24.4,14.9411765 24.302521,18.2655462 21.2840336,21.2840336 C19.7310924,22.8369748 18.107563,23.6235294 16.4605042,23.6235294 L16.3697479,23.6235294 C14.7495798,23.5966387 13.1596639,22.810084 11.6436975,21.2941176 L11.4588235,21.1159664 C11.3109244,20.9714286 11.1630252,20.8302521 11.0352941,20.6857143 L10.2151261,19.8655462 C10.2016807,19.8554622 10.1848739,19.8487395 10.1747899,19.8386555 L3.60336134,13.2638655 C3.59327731,13.2537815 3.58991597,13.2403361 3.58319328,13.2302521 L2.90420168,12.5512605 C2.78991597,12.4571429 2.65210084,12.312605 2.51428571,12.1680672 L2.33613445,11.9831933 C0.816806723,10.4638655 0.0336134454,8.87394958 0.00336134454,7.25378151 C-0.0268907563,5.5697479 0.756302521,3.91596639 2.33613445,2.33613445 C5.39831933,-0.729411765 8.77647059,-0.773109244 11.8521008,2.20168067 L13.2403361,3.58991597 C13.2470588,3.59663866 13.2571429,3.6 13.2638655,3.60336134 L19.8352941,10.1781513 C19.8386555,10.1848739 19.8420168,10.1915966 19.8453782,10.194958 L21.3680672,11.7176471 C21.4453782,11.7915966 21.5193277,11.8655462 21.589916,11.9428571 Z M11.2235294,11.1865546 C11.5159664,10.8941176 11.9865546,10.8941176 12.2789916,11.1865546 C12.5714286,11.4789916 12.5714286,11.9495798 12.2789916,12.2420168 C11.9865546,12.5344538 11.5159664,12.5344538 11.2235294,12.2420168 C10.9344538,11.9529412 10.9344538,11.4789916 11.2235294,11.1865546 Z M10.5613445,14.6016807 C10.8537815,14.3092437 11.3277311,14.3092437 11.6168067,14.6016807 C11.9092437,14.8941176 11.9092437,15.3647059 11.6168067,15.6571429 C11.3243697,15.9495798 10.8537815,15.9495798 10.5613445,15.6571429 C10.2722689,15.3680672 10.2722689,14.8941176 10.5613445,14.6016807 Z M15.7781513,10.4436975 C16.0705882,10.7361345 16.0705882,11.2067227 15.7781513,11.4991597 C15.4857143,11.7915966 15.0151261,11.7915966 14.7226891,11.4991597 C14.4302521,11.2067227 14.4302521,10.7327731 14.7226891,10.4436975 C15.0151261,10.1512605 15.4857143,10.1512605 15.7781513,10.4436975 Z M7.88235294,11.8957983 C8.17478992,11.6033613 8.64537815,11.6033613 8.93781513,11.8957983 C9.2302521,12.1882353 9.2302521,12.6588235 8.93781513,12.9512605 C8.64537815,13.2436975 8.17478992,13.2436975 7.88235294,12.9512605 C7.58991597,12.6588235 7.58991597,12.1882353 7.88235294,11.8957983 Z M12.0436975,7.73445378 C12.3361345,7.44201681 12.8067227,7.44201681 13.0991597,7.73445378 C13.3915966,8.02689076 13.3915966,8.49747899 13.0991597,8.78991597 C12.8067227,9.08235294 12.3327731,9.08235294 12.0436975,8.78991597 C11.7512605,8.50084034 11.7512605,8.02689076 12.0436975,7.73445378 Z" id="Tirita_2Regular"></path>
        </g>
    </g>
</svg>

<svg width="24" height="24" viewBox="0 0 24 24" xmlns="http://www.w3.org/2000/svg"><path d="M20.242 20.245c2.47-2.47 2.551-4.863.249-7.324-.057-.067-.098-.1-.135-.138l-.104-.1-.944-.945-7.57 7.57.373.373c.134.15.245.258.36.366l.208.202c1.24 1.24 2.487 1.879 3.714 1.899 1.234.013 2.565-.615 3.849-1.903zm-9.543-1.973l7.567-7.573-5.533-5.533-7.567 7.573 5.533 5.533zm-6.796-6.8l.225.225 7.57-7.573-.881-.88c-1.23-1.19-2.444-1.789-3.657-1.789-1.257 0-2.511.64-3.785 1.913-2.548 2.548-2.548 5.022 0 7.57l.201.208c.108.118.212.229.327.326zm17.687.47c2.81 3 2.713 6.324-.306 9.342-1.553 1.553-3.176 2.34-4.823 2.34h-.091c-1.62-.027-3.21-.814-4.726-2.33l-.185-.178c-.148-.145-.296-.286-.424-.43l-.82-.82c-.013-.01-.03-.017-.04-.027l-6.572-6.575c-.01-.01-.013-.024-.02-.034l-.679-.679c-.114-.094-.252-.238-.39-.383l-.178-.185C.816 10.463.034 8.873.003 7.253c-.03-1.683.753-3.337 2.333-4.917 3.062-3.065 6.44-3.11 9.516-.134L13.24 3.59c.007.007.017.01.024.013l6.571 6.575c.004.007.007.014.01.017l1.523 1.523c.077.074.151.148.222.225zm-10.366-.755a.745.745 0 011.055 0 .745.745 0 010 1.055.745.745 0 01-1.055 0 .75.75 0 010-1.055zm-.663 3.415a.745.745 0 011.056 0 .745.745 0 010 1.055.745.745 0 01-1.056 0 .75.75 0 010-1.055zm5.217-4.158a.745.745 0 010 1.055.745.745 0 01-1.055 0 .745.745 0 010-1.055.745.745 0 011.055 0zm-7.896 1.452a.745.745 0 011.056 0 .745.745 0 010 1.055.745.745 0 01-1.056 0 .745.745 0 010-1.055zm4.162-4.162a.745.745 0 011.055 0 .745.745 0 010 1.056.745.745 0 01-1.055 0 .745.745 0 010-1.056z" fill="#5CB615" fill-rule="nonzero"/></svg>
